X:1
T:The Well-Tempered Clavier Part II Fuga III
T:BWV 872
T:J. S. Bach
%%score { ( 1 3 4 ) | ( 2 5 ) }
L:1/8
M:4/4
K:C#
V:1 treble nm="Harp"
V:3 treble 
V:4 treble 
V:2 bass 
V:5 bass 
V:1
 z4 z GBG | c z =B z A/G/F- F/G/A/F/ | G z c z c z B z | z cec g z f z | %4
 e/d/c- c/d/e/c/ z/ d/f/d/ g z | f z e>e ^^fg- g/g/f | g z z2 z4 | z EGE A z G z | %8
 F/G/A/B/ ^^c/d/e/4d/4c/ d z z d | BdGc A z B z | cgeg c z z/ =B/A/G/ | A2- A/A/d G2- G/G/c | %12
 F2- F/E/F E2- E/D/E- | E>E D2 E z z e | ce A z z a^^fa | d z e z f/g/a- a/g/f/g/ | %16
 e/f/g- g/f/e/f/ d/g/f/e/ d/c/B/4c/4d/ | c/A/B/c/ d/e/f/4e/4d/ c/B/A/G/ c z | %18
 A z f z z/ f/e/d/ e/4f/4g/c/4d/4e/ | A/e/d/c/ d/4e/4f/B/4c/4d/ G/d/c/B/ c/4d/4e/G/4A/4=B/ | %20
 A>F G>E F>D E2- | E2- E/D/F/D/ B,B,/D/ G>F | EE/G/ c>=B AA/c/ f2- | %23
 f/A/B/c/ d/e/f/4e/4d/ e/f/e/d/ c/B/A/4B/4c/ | Bgeg c/e/f/g/ a/b/c'/a/ | %25
 f/g/f/e/ d/c/B/4c/4d/ G G3- | G/C/D/E/ F/G/A/F/ D/E/F/G/ A/B/c/4B/4A/ | Bd/c/ Bd Gc=ec | %28
 f/=a/g/f/ =e/d/c/4d/4e/ ^^F/G/A/B/ c/d/e/4d/4c/ | Bd g4 f2- | %30
 f2 e2- e-e/4d/4c/4=B/4 A/4G/4F/4E/4F- | F2- FE- E/4E/4D/4C/4D- D2- | DC- C/C/B, C2- C/G,/=B,/G,/ | %33
 A,2- A,/A,/C/A,/ D2- D/E/F- | F/E/D/F/- F/A/G/F/ !fermata!E4 |] %35
V:2
 z C,E,C, G, z F, z | E,/D,/C,- C,/D,/E,/C,/ F, z F,, z | z C,A,,C, F,,A,,D,,G,, | %3
 C,, z z C B,DG, z | z C,E,C, F, z E, z | z/ D,/B,,/D,/ ^^G,,A,, D,,E,,C,,D,, | %6
 z G,,B,,G,, C, z B,, z | A,,/B,,/C,/D,/ E,/F,/G,/4F,/4E,/ F, z ^^C, z | D, z z A, F,A,D,^^F, | %9
 G,/G,,/A,,/B,,/ C,/D,/E,/4D,/4C,/ F,D, z G, | E,G,C, z z C,E,C, | F,A,D,F, B,,G,C,E, | %12
 A,,F,B,,D, ^^G,,E,,A,,^G,, | F,,E,, G,,/4F,,/4G,,/4F,,/4G,,/4F,,/4G,,/4F,,/4 E,,E,^^G,E, | %14
 A, z G, z ^^F,/E,/D,- D,/E,/F,/4E,/4D,/ | G, z z2 z4 | z C,E,C, G,4- | G,G, F,2- F,F, E, z | %18
 z/ A,/F,/A,/ D, z C, z z/ C,/E,/C,/ | F, z z D, B,, z z C, | F,,F,E,A,, D,G,,C,C,, | %21
 F,,/C,/A,,/C,/ F,2- F,F,E,G, | C,=B,A,C F,E,D,F, | =C,G,B,G, C z A, z | %24
 z/ G,/A,/B,/ C/D/E/C/ A,A,CA, | DD,B,,D, E,E,,C,,E,, | F,,2 D,2 F,2 D,2 | G,8- | G,8- | %29
 G,/A,/G,/F,/ E,/D,/^^C,/4D,/4E,/ A,,/A,/B,/^^C/ D/E/F/4E/4D/ | %30
 G/F/E/D/ C/=B,/A,/4B,/4C/ F,D,,F,,D,, | z z/4 F,/4E,/4D,/4 E,/4D,/4C,/4B,,/4C, z ^^F, G,2 | %32
 E,=E, D,2 C,4- | C,4- C,/C,/B,,/A,,/ B,,2 | C,2 D,2 !fermata!C,4 |] %35
V:3
 x8 | z GEG C z D z | E/F/G- G/F/E/G/ D/E/F- F/E/D/F/ | E z z2 z GBG | c z B z A z z/ A/^^c/A/ | %5
 d z z/ d/^c- ^c/BB/ A>c | B z z2 z G,B,G, | %7
 C z =B, z[I:staff +1] A,/^B,/[I:staff -1]^^C/D/ E/F/G/4F/4E/ | %8
 F z[I:staff +1] E[I:staff -1] z z AFA | DFEG- G/G/F/E/[I:staff +1] D/C/B,/4C/4D/ | %10
[I:staff -1] G, z z[I:staff +1] C[I:staff -1] EC G z | z/ G/F/E/ F>F- F/-F/E/D/ E>E- | %12
 E/E/D/C/ D>D- D/D/C/B,/ C>B, | A,/^^G,/A,- A,/C/B,/A,/ G, z z2 | %14
 z[I:staff +1] A,^^CA, D[I:staff -1] z[I:staff +1] ^C[I:staff -1] z | %15
[I:staff +1] B,/A,/G,- G,/A,/=B,/4A,/4G,/ A,/^B,/C/4B,/4A,/ B,/C/D/4C/4B,/ | C4- CCB,E | %17
 A,3 D G,2[I:staff -1] z/ G/E/G/ | C z z/[I:staff +1] B,/G,/B,/ CG, C2- | %19
 CA, F,2 F,G,E,[I:staff -1]E- | E/C/D- D/B,/C- C/A,/B, z/ C/G,/=B,/ | A,4 z/ G,3/2- G,/C/B, | %22
 z/ C3/2- C/F/E z/ F3/2- F/=B/A/d/ | G z z2 z/[I:staff +1] B,/C/D/ E/^^F/G/F/ | %24
 G[I:staff -1] z[I:staff +1] C2 E2 C2 | F[I:staff -1] z z F- F/A/G/F/ E/D/C/4D/4E/ | %26
 A,2 z D[I:staff +1] A,DF,[I:staff -1]F- | F/G/F/[I:staff +1]=E/ D/C/B,/D/ E/F/E/D/ C/B,/A,/C/ | %28
 B,DC=E[I:staff -1] z2 z ^^F | G z z e ^^ceAd | BdGc A/c/F z z/4 E/4D/4C/4 | %31
 z/ D3/2- DC- C-C/4C/4B,/4A,/4 B,2- | B,/G,^^F,/ G,>^F,- F,/[I:staff +1]F,/^E,/D,/ E,2- | %33
 E,/G,/F,/E,/ F,2- F,2[I:staff -1] z z/ G,/ | A,2 B,2 [G,C]4 |] %35
V:4
 x8 | x8 | x8 | x8 | x8 | x8 | x8 | x8 | x8 | x8 | x8 | x8 | x8 | x8 | x8 | x8 | x8 | x8 | x8 | %19
 x8 | x8 | x8 | x8 | x8 | x8 | x8 | x8 | x8 | z4 z2[I:staff +1] =E2 | x8 | x8 | %31
[I:staff -1] C/D/G,- G,2 z4 | x8 | x8 | x8 |] %35
V:5
 x8 | x8 | x8 | x8 | x8 | x8 | x8 | x8 | x8 | x8 | x8 | x8 | x8 | x8 | x8 | x8 | x8 | x8 | x8 | %19
 x8 | x8 | x8 | x8 | x8 | x8 | x8 | x8 | x8 | z4 A, C3 | D z z2 z4 | x8 | %31
 G,,2- G,,-G,,/4A,,/4G,,/4^^F,,/4 G,,2- G,,/4A,,/4B,,/4C,/4D,/4E,/4^F,/4D,/4 | z2 G,,2 C,,4- | %33
 C,,8- | !fermata!C,,8 |] %35

